X: 2315
T: I HA'E A WIFE O' MY AIN
R: Scotch Jig.
%R: slip-jig
B: James Kerr "Merry Melodies" v.2 p.34 #315
Z: 2016 John Chambers <jc:trillian.mit.edu>
M: 9/8
L: 1/8
K: Em
|:\
vEFE uG2uA B3 | uEFE vG2vA BGE |\
vEFE uG2uA B3 | uDED vd2B AFD ::\
(3(gag) (3(fgf) e3 | uEFE vG2vA BGE |\
(3(gag) (3(fgf) e3 | DED d^cB AFD :|
